public/favicon.svg

<?xml version="1.0" encoding="UTF-8" standalone="no"?>
<!DOCTYPE svg PUBLIC "-//W3C//DTD SVG 1.1//EN" "http://www.w3.org/Graphics/SVG/1.1/DTD/svg11.dtd">
<!-- Created with Vectornator (http://vectornator.io/) -->
<svg height="100%" stroke-miterlimit="10" style="fill-rule:nonzero;clip-rule:evenodd;stroke-linecap:round;stroke-linejoin:round;" version="1.1" viewBox="0 0 1060 1060" width="100%" xml:space="preserve" xmlns="http://www.w3.org/2000/svg" xmlns:vectornator="http://vectornator.io" xmlns:xlink="http://www.w3.org/1999/xlink">
<defs>
<path d="M22 530C22 249.439 249.439 22 530 22C810.561 22 1038 249.439 1038 530C1038 810.561 810.561 1038 530 1038C249.439 1038 22 810.561 22 530Z" id="Fill"/>
<linearGradient gradientTransform="matrix(1.56072 4.42142e-18 9.4234e-18 1.56072 -269.091 -108.523)" gradientUnits="userSpaceOnUse" id="LinearGradient" x1="179" x2="845" y1="512" y2="512">
<stop offset="0" stop-color="#ffbd59"/>
<stop offset="1" stop-color="#ff6b11"/>
</linearGradient>
<path d="M526.62-56.3011C306.666-55.3425 119.353 82.1323 44.3193 275.476C25.1536 348.584 13.559 424.771 10.8636 503.244C11.3319 509.343 11.7501 515.46 12.4228 521.5C11.7829 521.826 11.1758 522.208 10.5374 522.539C10.4469 528.212 10.2784 533.864 10.2784 539.559C10.2784 917.965 212.668 1248.83 514.927 1430.62C515.967 1430 517.077 1429.49 518.111 1428.87C523.206 1431.9 528.498 1434.58 533.703 1437.44C842.266 1257.18 1049.72 922.705 1049.72 539.559C1049.72 538.319 1049.66 537.094 1049.65 535.857C1047.72 534.702 1045.89 533.413 1043.94 532.283C1046.19 515.28 1047.37 497.961 1047.97 480.506C1044.44 417.672 1035.4 356.334 1021.2 296.98C951.54 90.7912 756.219-57.3015 526.62-56.3011Z" id="Fill_2"/>
<linearGradient gradientTransform="matrix(1.56072 4.42142e-18 9.4234e-18 1.56072 -269.091 -108.523)" gradientUnits="userSpaceOnUse" id="LinearGradient_2" x1="178.274" x2="844.274" y1="366.436" y2="366.436">
<stop offset="0" stop-color="#ffbd59"/>
<stop offset="1" stop-color="#ff6b11"/>
</linearGradient>
<linearGradient gradientTransform="matrix(1.56072 4.42142e-18 9.4234e-18 1.56072 -269.091 -108.523)" gradientUnits="userSpaceOnUse" id="LinearGradient_3" x1="-1.15388" x2="664.846" y1="700.221" y2="700.221">
<stop offset="0" stop-color="#ff1148"/>
<stop offset="1" stop-color="#ee3cff"/>
</linearGradient>
<linearGradient gradientTransform="matrix(1.56072 4.42142e-18 9.4234e-18 1.56072 -269.091 -108.523)" gradientUnits="userSpaceOnUse" id="LinearGradient_4" x1="341.43" x2="1007.43" y1="698.728" y2="698.728">
<stop offset="0" stop-color="#00d2ff"/>
<stop offset="1" stop-color="#2aff75"/>
</linearGradient>
</defs>
<g id="Layer-1" vectornator:layerName="Layer 1">
<g opacity="1" vectornator:layerName="Group 4">
<use fill="none" opacity="1" stroke="#310024" stroke-linecap="butt" stroke-linejoin="miter" stroke-width="40" vectornator:layerName="Oval 1" xlink:href="#Fill"/>
<clipPath clip-rule="nonzero" id="ClipPath">
<use xlink:href="#Fill"/>
</clipPath>
<g clip-path="url(#ClipPath)">
<g opacity="1" vectornator:layerName="Group 3">
<path d="M526.62-56.3011C306.666-55.3425 119.353 82.1323 44.3193 275.476C25.1536 348.584 13.559 424.771 10.8636 503.244C11.3319 509.343 11.7501 515.46 12.4228 521.5C11.7829 521.826 11.1758 522.208 10.5374 522.539C10.4469 528.212 10.2784 533.864 10.2784 539.559C10.2784 917.965 212.668 1248.83 514.927 1430.62C515.967 1430 517.077 1429.49 518.111 1428.87C523.206 1431.9 528.498 1434.58 533.703 1437.44C842.266 1257.18 1049.72 922.705 1049.72 539.559C1049.72 538.319 1049.66 537.094 1049.65 535.857C1047.72 534.702 1045.89 533.413 1043.94 532.283C1046.19 515.28 1047.37 497.961 1047.97 480.506C1044.44 417.672 1035.4 356.334 1021.2 296.98C951.54 90.7912 756.219-57.3015 526.62-56.3011Z" fill="url(#LinearGradient)" fill-rule="nonzero" opacity="0.332045" stroke="#310024" stroke-linecap="butt" stroke-linejoin="miter" stroke-width="40" vectornator:layerName="path"/>
<g opacity="1" vectornator:layerName="path">
<use fill="none" opacity="1" stroke="#310024" stroke-linecap="butt" stroke-linejoin="miter" stroke-width="40" vectornator:layerName="path" xlink:href="#Fill_2"/>
<clipPath clip-rule="nonzero" id="ClipPath_2">
<use xlink:href="#Fill_2"/>
</clipPath>
<g clip-path="url(#ClipPath_2)">
<path d="M9.14996 465.647C7.89982 178.616 239.571-55.0824 526.602-56.3334C813.633-57.5843 1047.33 174.087 1048.58 461.118C1049.83 748.149 818.164 981.847 531.132 983.099C244.1 984.349 10.4017 752.679 9.14996 465.647Z" fill="url(#LinearGradient_2)" fill-rule="nonzero" opacity="1" stroke="#310024" stroke-linecap="butt" stroke-linejoin="miter" stroke-width="40" vectornator:layerName="Oval 1"/>
<path d="M-270.887 986.594C-272.138 699.562-40.467 465.864 246.564 464.613C533.595 463.363 767.295 695.033 768.545 982.064C769.797 1269.1 538.125 1502.8 251.093 1504.05C-35.9378 1505.3-269.636 1273.62-270.887 986.594Z" fill="url(#LinearGradient_3)" fill-rule="nonzero" opacity="1" stroke="#310024" stroke-linecap="butt" stroke-linejoin="miter" stroke-width="40" vectornator:layerName="Oval 2"/>
<path d="M263.791 984.263C262.541 697.232 494.212 463.534 781.243 462.283C1068.27 461.032 1301.98 692.703 1303.23 979.734C1304.48 1266.77 1072.81 1500.46 785.774 1501.71C498.741 1502.97 265.043 1271.29 263.791 984.263Z" fill="url(#LinearGradient_4)" fill-rule="nonzero" opacity="1" stroke="#310024" stroke-linecap="butt" stroke-linejoin="miter" stroke-width="40" vectornator:layerName="Oval 3"/>
</g>
</g>
</g>
</g>
</g>
<path d="M22 530C22 249.439 249.439 22 530 22C810.561 22 1038 249.439 1038 530C1038 810.561 810.561 1038 530 1038C249.439 1038 22 810.561 22 530Z" fill="none" opacity="1" stroke="#310024" stroke-linecap="butt" stroke-linejoin="miter" stroke-width="40" vectornator:layerName="Oval 1"/>
</g>
</svg>

<svg xmlns="http://www.w3.org/2000/svg" xmlns:vectornator="http://vectornator.io" xmlns:xlink="http://www.w3.org/1999/xlink" xml:space="preserve" stroke-miterlimit="10" style="fill-rule:nonzero;clip-rule:evenodd;stroke-linecap:round;stroke-linejoin:round" viewBox="0 0 1060 1060"><defs><linearGradient id="c" x1="179" x2="845" y1="512" y2="512" gradientTransform="matrix(1.56072 0 0 1.56072 -269.091 -108.523)" gradientUnits="userSpaceOnUse"><stop offset="0" stop-color="#ffbd59"/><stop offset="1" stop-color="#ff6b11"/></linearGradient><linearGradient id="f" x1="178.274" x2="844.274" y1="366.436" y2="366.436" gradientTransform="matrix(1.56072 0 0 1.56072 -269.091 -108.523)" gradientUnits="userSpaceOnUse"><stop offset="0" stop-color="#ffbd59"/><stop offset="1" stop-color="#ff6b11"/></linearGradient><linearGradient id="g" x1="-1.154" x2="664.846" y1="700.221" y2="700.221" gradientTransform="matrix(1.56072 0 0 1.56072 -269.091 -108.523)" gradientUnits="userSpaceOnUse"><stop offset="0" stop-color="#ff1148"/><stop offset="1" stop-color="#ee3cff"/></linearGradient><linearGradient id="h" x1="341.43" x2="1007.43" y1="698.728" y2="698.728" gradientTransform="matrix(1.56072 0 0 1.56072 -269.091 -108.523)" gradientUnits="userSpaceOnUse"><stop offset="0" stop-color="#00d2ff"/><stop offset="1" stop-color="#2aff75"/></linearGradient><path id="a" d="M22 530C22 249.439 249.439 22 530 22c280.561 0 508 227.439 508 508 0 280.561-227.439 508-508 508-280.561 0-508-227.439-508-508Z"/><path id="d" d="M526.62-56.301c-219.954.959-407.267 138.433-482.3 331.777-19.166 73.108-30.761 149.295-33.456 227.768.468 6.099.886 12.216 1.559 18.256-.64.326-1.247.708-1.886 1.039-.09 5.673-.259 11.325-.259 17.02 0 378.406 202.39 709.271 504.649 891.061 1.04-.62 2.15-1.13 3.184-1.75 5.095 3.03 10.387 5.71 15.592 8.57 308.563-180.26 516.017-514.735 516.017-897.881 0-1.24-.06-2.465-.07-3.702-1.93-1.155-3.76-2.444-5.71-3.574 2.25-17.003 3.43-34.322 4.03-51.777-3.53-62.834-12.57-124.172-26.77-183.526C951.54 90.791 756.219-57.301 526.62-56.301Z"/></defs><g vectornator:layerName="Layer 1"><g vectornator:layerName="Group 4"><use vectornator:layerName="Oval 1" xlink:href="#a" fill="none" stroke="#310024" stroke-linecap="butt" stroke-linejoin="miter" stroke-width="40"/><clipPath id="b" clip-rule="nonzero"><use xlink:href="#a"/></clipPath><g vectornator:layerName="Group 3" clip-path="url(#b)"><path vectornator:layerName="path" fill="url(#c)" stroke="#310024" stroke-linecap="butt" stroke-linejoin="miter" stroke-width="40" d="M526.62-56.301c-219.954.959-407.267 138.433-482.3 331.777-19.166 73.108-30.761 149.295-33.456 227.768.468 6.099.886 12.216 1.559 18.256-.64.326-1.247.708-1.886 1.039-.09 5.673-.259 11.325-.259 17.02 0 378.406 202.39 709.271 504.649 891.061 1.04-.62 2.15-1.13 3.184-1.75 5.095 3.03 10.387 5.71 15.592 8.57 308.563-180.26 516.017-514.735 516.017-897.881 0-1.24-.06-2.465-.07-3.702-1.93-1.155-3.76-2.444-5.71-3.574 2.25-17.003 3.43-34.322 4.03-51.777-3.53-62.834-12.57-124.172-26.77-183.526C951.54 90.791 756.219-57.301 526.62-56.301Z" opacity=".332"/><g vectornator:layerName="path"><use vectornator:layerName="path" xlink:href="#d" fill="none" stroke="#310024" stroke-linecap="butt" stroke-linejoin="miter" stroke-width="40"/><clipPath id="e" clip-rule="nonzero"><use xlink:href="#d"/></clipPath><g stroke="#310024" stroke-linecap="butt" stroke-linejoin="miter" stroke-width="40" clip-path="url(#e)"><path vectornator:layerName="Oval 1" fill="url(#f)" d="M9.15 465.647C7.9 178.616 239.571-55.083 526.602-56.333c287.031-1.251 520.728 230.42 521.978 517.451 1.25 287.031-230.416 520.729-517.448 521.981C244.1 984.349 10.402 752.679 9.15 465.647Z"/><path vectornator:layerName="Oval 2" fill="url(#g)" d="M-270.887 986.594c-1.251-287.032 230.42-520.73 517.451-521.981 287.031-1.25 520.731 230.42 521.981 517.451 1.252 287.036-230.42 520.736-517.452 521.986-287.03 1.25-520.729-230.43-521.98-517.456Z"/><path vectornator:layerName="Oval 3" fill="url(#h)" d="M263.791 984.263c-1.25-287.031 230.421-520.729 517.452-521.98 287.027-1.251 520.737 230.42 521.987 517.451 1.25 287.036-230.42 520.726-517.456 521.976-287.033 1.26-520.731-230.42-521.983-517.447Z"/></g></g></g></g><path vectornator:layerName="Oval 1" fill="none" stroke="#310024" stroke-linecap="butt" stroke-linejoin="miter" stroke-width="40" d="M22 530C22 249.439 249.439 22 530 22c280.561 0 508 227.439 508 508 0 280.561-227.439 508-508 508-280.561 0-508-227.439-508-508Z"/></g></svg>
